packages/icons/svg/Fill/moon.svg

<svg width="24" height="24" viewBox="0 0 24 24" fill="none" xmlns="http://www.w3.org/2000/svg">
<g id="Icon/Fill/moon">
<path id="Mask" fill-rule="evenodd" clip-rule="evenodd" d="M12.2958 22C12.2638 22 12.2328 22 12.1998 21.999C9.4058 21.975 6.79779 20.854 4.85579 18.846C1.17879 15.041 1.06379 8.74401 4.59879 4.80901C5.69979 3.58201 7.0438 2.65901 8.59179 2.06601C8.95679 1.92401 9.3718 2.01201 9.65079 2.28801C9.9308 2.56301 10.0238 2.97601 9.88879 3.34401C8.77079 6.39901 9.53179 9.85501 11.8298 12.148C14.1268 14.441 17.5928 15.202 20.6578 14.086C21.0258 13.95 21.4388 14.046 21.7128 14.324C21.9878 14.604 22.0738 15.019 21.9338 15.384C21.4098 16.747 20.6238 17.957 19.5978 18.98C17.6448 20.93 15.0538 22 12.2958 22Z" fill="#000000"/>
</g>
</svg>

<svg fill="none" height="24" viewBox="0 0 24 24" width="24" xmlns="http://www.w3.org/2000/svg"><path clip-rule="evenodd" d="m12.2959 22.0001c-.032 0-.063 0-.096-.001-2.79397-.024-5.40197-1.145-7.34397-3.153-3.677-3.805-3.792-10.10203-.257-14.03703 1.101-1.227 2.445-2.15 3.993-2.743.365-.142.78-.054 1.059.222.28.275.37297.688.238 1.056-1.118 3.055-.357 6.511 1.94097 8.80403 2.297 2.293 5.763 3.054 8.828 1.938.368-.136.781-.04 1.055.238.275.28.361.695.221 1.06-.524 1.363-1.31 2.573-2.336 3.596-1.953 1.95-4.544 3.02-7.302 3.02" fill="#6b7280" fill-rule="evenodd"/></svg>
